X:1
T:Title
%%score { ( 1 3 ) | ( 2 4 ) }
L:1/8
Q:1/4=100
M:4/4
K:G
V:1 treble nm="Grand Piano"
V:3 treble 
V:2 treble 
V:4 treble 
V:1
 B3 c d2 B2 | [FB]3 [FA] G2 D2 | EF G2 [DG]2 [DB]2 | [^CB]2 [CA]2 A4 | B3 c d2 B2 | %5
w: B.~C.~Unseld * * *|||||
 [FB]3 [FA] G2 D2 | EF G2 [DG]2 [DB]2 | A3 G G4 | [Ec]3 [Ec] [Ec]2 [Ge]2 | edBc d2 B2 | %10
w: |||||
 [^DB]3 [DA] [EG]2 [EB]2 | BAAG A4 | B3 c d2 B2 | BAGA BA G2 | EF G2 [DG]2 [DB]2 | E2 z2 z4 |] %16
w: ||||||
V:2
 [G,D]3 [G,A,D] [G,B,G]2 [G,DG]2 | [D,D]3 [D,C] [E,B,E]2 [B,,G,]2 | %2
 [C,G,D]2 [E,G,C]2 [B,,G,]2 [G,,G,]2 | [A,,G,]2 [A,,G,]2 [D,F,D]4 | %4
 [G,D]3 [G,A,D] [G,B,G]2 [G,DG]2 | [D,D]3 [D,C] [E,B,E]2 [B,,G,]2 | %6
 [C,G,D]2 [E,G,C]2 [B,,G,]2 [G,,G,]2 | [C,G,]2 [D,F,]2 [G,B,]4 | [C,G,]3 [C,G,] [C,G,]2 [C,C]2 | %9
 [G,G]2 [G,G]2 z4[K:bass] | [B,,F,]3 [B,,F,] [E,G,]2 [E,G,]2 | [A,,G,]2 [A,,G,]2 [D,F,D]4 | %12
 [G,D]3 [G,A,D] [G,B,G]2 [G,DG]2 | B,[K:bass]A,G,A, B,A, G,2 | %14
 [C,G,D]2 [E,G,C]2 [B,,G,]2 [G,,G,]2 | [C,G,]2 z G G,,4 |] %16
V:3
 x8 | x8 | x8 | x8 | x8 | x8 | x8 | E2 C2 z4 | x8 | x8 | x8 | ^C2 C2 z4 | x8 | x8 | x8 | %15
 A2- [F,CA]2 [G,B,G]4 |] %16
V:4
 x8 | x8 | x8 | x8 | x8 | x8 | x8 | x8 | x8 | CB, z A, [G,B,G]2[K:bass] [G,D]2 | x8 | x8 | x8 | %13
 x[K:bass] x7 | x8 | z2 D,2 z4 |] %16

